assets/img/trophy.svg

<svg enable-background="new 0 0 512 512" height="512" viewBox="0 0 512 512" width="512" xmlns="http://www.w3.org/2000/svg"><g fill="#ffc107"><path d="m286 222.055c57.897 0 105-47.078 105-104.944l-.001-15.056h-269.999v15.056c0 57.866 47.103 104.944 105 104.944 5.093 0 10.099-.372 15-1.076v37.076h-35v30h100v-30h-35v-37.076c4.901.704 9.907 1.076 15 1.076zm43.931-90h29.571c-5.969 29.366-29.18 52.532-58.569 58.49 15.285-15.578 25.759-35.881 28.998-58.49zm-177.434 0h29.572c3.24 22.609 13.713 42.913 28.998 58.49-29.389-5.958-52.601-29.124-58.57-58.49zm103.503 53.724c-22.047-9.655-38.598-29.595-43.502-53.724h87.004c-4.904 24.129-21.454 44.069-43.502 53.724z" xmlns="http://www.w3.org/2000/svg"/><path d="m271.877 378.167c2.574-3.366 4.123-7.557 4.123-12.113 0-11.028-8.972-20-20-20s-20 8.972-20 20c0 4.556 1.548 8.747 4.123 12.113-5.899 41.15-41.367 72.887-84.123 72.887v30c42.793 0 80.197-23.497 100-58.265 19.803 34.768 57.207 58.265 100 58.265v-30c-42.756.001-78.224-31.736-84.123-72.887z" xmlns="http://www.w3.org/2000/svg"/><path d="m305.655 306.042c-16.44 1.888-33.94 25.45-28.6 51.819 26.347 0 40.284-24.806 28.6-51.819z" xmlns="http://www.w3.org/2000/svg"/><path d="m278.09 368.389c-.001 27.166 25.437 46.791 59.022 33.278-1.585-12.613-21.585-40.488-59.022-33.278z" xmlns="http://www.w3.org/2000/svg"/><path d="m346.4 285.517c-19.29 9.871-22.123 39.954-12.17 57.901 23.225-6.28 32.13-35.53 12.17-57.901z" xmlns="http://www.w3.org/2000/svg"/><path d="m338.31 353.18c6.967 23.208 33.717 36.708 66.19 14.545-6.64-14.254-33.64-31.337-66.19-14.545z" xmlns="http://www.w3.org/2000/svg"/><path d="m379.476 253.902c-19.511 20.153-4.199 51.215 5.222 58.995 23.954-15.342 16.996-45.259-5.222-58.995z" xmlns="http://www.w3.org/2000/svg"/><path d="m391.452 321.039c13.658 22.379 49.241 23.765 67.509-5.365-19.434-18.453-50.434-12.536-67.509 5.365z" xmlns="http://www.w3.org/2000/svg"/><path d="m401.858 214.118c-9.664 15.52.502 45.187 22.192 54.834 17.144-21.98 3.727-48.147-22.192-54.834z" xmlns="http://www.w3.org/2000/svg"/><path d="m432.88 274.779c16.73 15.025 50.397 13.192 63.059-24.848-27.162-14.793-57.329 10.207-63.059 24.848z" xmlns="http://www.w3.org/2000/svg"/><path d="m411.554 169.544c-3.36 11.677 6.39 40.01 37.372 45.939 11.184-29.512-15.066-47.178-37.372-45.939z" xmlns="http://www.w3.org/2000/svg"/><path d="m459.077 218.464c16.949 8.924 52.94-.243 52.923-42.261-24.806-4.648-49.223 16.28-52.923 42.261z" xmlns="http://www.w3.org/2000/svg"/><path d="m407.934 123.918c2.781 25.762 33.906 35.824 49.022 33.126 1.946-27.887-22.304-41.864-49.022-33.126z" xmlns="http://www.w3.org/2000/svg"/><path d="m505.985 101.123c-28.083 2.932-41.271 33.557-38.45 55.813 34.408 3.535 46.825-31.298 38.45-55.813z" xmlns="http://www.w3.org/2000/svg"/><path d="m391.116 81.542c7.411 17.764 34.036 26.889 56.604 17.247-2.068-16.609-25.818-39.109-56.604-17.247z" xmlns="http://www.w3.org/2000/svg"/><path d="m478.144 30.946c-28.992 12.359-28.367 50.359-20.338 64.65 34.596-8.006 35.221-42.541 20.338-64.65z" xmlns="http://www.w3.org/2000/svg"/><path d="m206.345 306.042c-11.685 27.013 2.253 51.819 28.6 51.819 5.341-26.369-12.159-49.931-28.6-51.819z" xmlns="http://www.w3.org/2000/svg"/><path d="m174.889 401.669c33.584 13.512 59.022-6.113 59.022-33.278-37.438-7.211-57.438 20.664-59.022 33.278z" xmlns="http://www.w3.org/2000/svg"/><path d="m165.6 285.517c-19.96 22.371-11.055 51.621 12.17 57.901 9.953-17.947 7.12-48.03-12.17-57.901z" xmlns="http://www.w3.org/2000/svg"/><path d="m107.5 367.725c32.473 22.163 59.223 8.663 66.19-14.545-32.551-16.792-59.551.292-66.19 14.545z" xmlns="http://www.w3.org/2000/svg"/><path d="m132.524 253.901c-22.218 13.737-29.176 43.654-5.222 58.995 9.421-7.779 24.733-38.842 5.222-58.995z" xmlns="http://www.w3.org/2000/svg"/><path d="m53.039 315.674c18.267 29.131 53.851 27.744 67.509 5.365-17.075-17.901-48.075-23.818-67.509-5.365z" xmlns="http://www.w3.org/2000/svg"/><path d="m110.142 214.117c-25.919 6.688-39.335 32.854-22.192 54.834 21.69-9.646 31.856-39.313 22.192-54.834z" xmlns="http://www.w3.org/2000/svg"/><path d="m16.061 249.931c12.662 38.04 46.329 39.874 63.059 24.848-5.73-14.641-35.897-39.641-63.059-24.848z" xmlns="http://www.w3.org/2000/svg"/><path d="m100.446 169.544c-22.306-1.24-48.556 16.427-37.372 45.939 30.982-5.928 40.732-34.262 37.372-45.939z" xmlns="http://www.w3.org/2000/svg"/><path d="m0 176.203c-.018 42.018 35.973 51.185 52.923 42.261-3.7-25.981-28.117-46.909-52.923-42.261z" xmlns="http://www.w3.org/2000/svg"/><path d="m55.044 157.044c15.117 2.698 46.242-7.365 49.022-33.126-26.718-8.738-50.968 5.239-49.022 33.126z" xmlns="http://www.w3.org/2000/svg"/><path d="m6.015 101.123c-8.375 24.515 4.041 59.348 38.45 55.813 2.821-22.256-10.367-52.881-38.45-55.813z" xmlns="http://www.w3.org/2000/svg"/><path d="m64.28 98.789c22.568 9.642 49.193.517 56.604-17.247-30.786-21.862-54.536.638-56.604 17.247z" xmlns="http://www.w3.org/2000/svg"/><path d="m33.856 30.946c-14.883 22.11-14.258 56.645 20.338 64.65 8.03-14.291 8.655-52.291-20.338-64.65z" xmlns="http://www.w3.org/2000/svg"/></g></svg>

<?xml version="1.0"?>
<svg xmlns="http://www.w3.org/2000/svg" xmlns:xlink="http://www.w3.org/1999/xlink" xmlns:svgjs="http://svgjs.com/svgjs" version="1.1" width="512" height="512" x="0" y="0" viewBox="0 0 512 512" style="enable-background:new 0 0 512 512" xml:space="preserve" class=""><g>
<g xmlns="http://www.w3.org/2000/svg">
	<g>
		<path d="M286,222.055c57.897,0,105-47.078,105-104.944l-0.001-15.056H121v15.056c0,57.866,47.103,104.944,105,104.944    c5.093,0,10.099-0.372,15-1.076v37.076h-35v30h100v-30h-35v-37.076C275.901,221.683,280.907,222.055,286,222.055z     M329.931,132.055h29.571c-5.969,29.366-29.18,52.532-58.569,58.49C316.218,174.967,326.692,154.664,329.931,132.055z     M152.497,132.055h29.572c3.24,22.609,13.713,42.913,28.998,58.49C181.678,184.587,158.466,161.421,152.497,132.055z M256,185.779    c-22.047-9.655-38.598-29.595-43.502-53.724h87.004C294.598,156.184,278.048,176.124,256,185.779z" fill="#ffc107" data-original="#000000" style=""/>
	</g>
</g>
<g xmlns="http://www.w3.org/2000/svg">
	<g>
		<path d="M271.877,378.167c2.574-3.366,4.123-7.557,4.123-12.113c0-11.028-8.972-20-20-20s-20,8.972-20,20    c0,4.556,1.548,8.747,4.123,12.113c-5.899,41.15-41.367,72.887-84.123,72.887v30c42.793,0,80.197-23.497,100-58.265    c19.803,34.768,57.207,58.265,100,58.265v-30C313.244,451.055,277.776,419.318,271.877,378.167z" fill="#ffc107" data-original="#000000" style=""/>
	</g>
</g>
<g xmlns="http://www.w3.org/2000/svg">
	<g>
		<path d="M305.655,306.042c-16.44,1.888-33.94,25.45-28.6,51.819C303.402,357.861,317.339,333.055,305.655,306.042z" fill="#ffc107" data-original="#000000" style=""/>
	</g>
</g>
<g xmlns="http://www.w3.org/2000/svg">
	<g>
		<path d="M278.09,368.389c-0.001,27.166,25.437,46.791,59.022,33.278C335.527,389.054,315.527,361.179,278.09,368.389z" fill="#ffc107" data-original="#000000" style=""/>
	</g>
</g>
<g xmlns="http://www.w3.org/2000/svg">
	<g>
		<path d="M346.4,285.517c-19.29,9.871-22.123,39.954-12.17,57.901C357.455,337.138,366.36,307.888,346.4,285.517z" fill="#ffc107" data-original="#000000" style=""/>
	</g>
</g>
<g xmlns="http://www.w3.org/2000/svg">
	<g>
		<path d="M338.31,353.18c6.967,23.208,33.717,36.708,66.19,14.545C397.86,353.471,370.86,336.388,338.31,353.18z" fill="#ffc107" data-original="#000000" style=""/>
	</g>
</g>
<g xmlns="http://www.w3.org/2000/svg">
	<g>
		<path d="M379.476,253.902c-19.511,20.153-4.199,51.215,5.222,58.995C408.652,297.555,401.694,267.638,379.476,253.902z" fill="#ffc107" data-original="#000000" style=""/>
	</g>
</g>
<g xmlns="http://www.w3.org/2000/svg">
	<g>
		<path d="M391.452,321.039c13.658,22.379,49.241,23.765,67.509-5.365C439.527,297.221,408.527,303.138,391.452,321.039z" fill="#ffc107" data-original="#000000" style=""/>
	</g>
</g>
<g xmlns="http://www.w3.org/2000/svg">
	<g>
		<path d="M401.858,214.118c-9.664,15.52,0.502,45.187,22.192,54.834C441.194,246.972,427.777,220.805,401.858,214.118z" fill="#ffc107" data-original="#000000" style=""/>
	</g>
</g>
<g xmlns="http://www.w3.org/2000/svg">
	<g>
		<path d="M432.88,274.779c16.73,15.025,50.397,13.192,63.059-24.848C468.777,235.138,438.61,260.138,432.88,274.779z" fill="#ffc107" data-original="#000000" style=""/>
	</g>
</g>
<g xmlns="http://www.w3.org/2000/svg">
	<g>
		<path d="M411.554,169.544c-3.36,11.677,6.39,40.01,37.372,45.939C460.11,185.971,433.86,168.305,411.554,169.544z" fill="#ffc107" data-original="#000000" style=""/>
	</g>
</g>
<g xmlns="http://www.w3.org/2000/svg">
	<g>
		<path d="M459.077,218.464c16.949,8.924,52.94-0.243,52.923-42.261C487.194,171.555,462.777,192.483,459.077,218.464z" fill="#ffc107" data-original="#000000" style=""/>
	</g>
</g>
<g xmlns="http://www.w3.org/2000/svg">
	<g>
		<path d="M407.934,123.918c2.781,25.762,33.906,35.824,49.022,33.126C458.902,129.157,434.652,115.18,407.934,123.918z" fill="#ffc107" data-original="#000000" style=""/>
	</g>
</g>
<g xmlns="http://www.w3.org/2000/svg">
	<g>
		<path d="M505.985,101.123c-28.083,2.932-41.271,33.557-38.45,55.813C501.943,160.471,514.36,125.638,505.985,101.123z" fill="#ffc107" data-original="#000000" style=""/>
	</g>
</g>
<g xmlns="http://www.w3.org/2000/svg">
	<g>
		<path d="M391.116,81.542c7.411,17.764,34.036,26.889,56.604,17.247C445.652,82.18,421.902,59.68,391.116,81.542z" fill="#ffc107" data-original="#000000" style=""/>
	</g>
</g>
<g xmlns="http://www.w3.org/2000/svg">
	<g>
		<path d="M478.144,30.946c-28.992,12.359-28.367,50.359-20.338,64.65C492.402,87.59,493.027,53.055,478.144,30.946z" fill="#ffc107" data-original="#000000" style=""/>
	</g>
</g>
<g xmlns="http://www.w3.org/2000/svg">
	<g>
		<path d="M206.345,306.042c-11.685,27.013,2.253,51.819,28.6,51.819C240.286,331.492,222.786,307.93,206.345,306.042z" fill="#ffc107" data-original="#000000" style=""/>
	</g>
</g>
<g xmlns="http://www.w3.org/2000/svg">
	<g>
		<path d="M174.889,401.669c33.584,13.512,59.022-6.113,59.022-33.278C196.473,361.18,176.473,389.055,174.889,401.669z" fill="#ffc107" data-original="#000000" style=""/>
	</g>
</g>
<g xmlns="http://www.w3.org/2000/svg">
	<g>
		<path d="M165.6,285.517c-19.96,22.371-11.055,51.621,12.17,57.901C187.723,325.471,184.89,295.388,165.6,285.517z" fill="#ffc107" data-original="#000000" style=""/>
	</g>
</g>
<g xmlns="http://www.w3.org/2000/svg">
	<g>
		<path d="M107.5,367.725c32.473,22.163,59.223,8.663,66.19-14.545C141.139,336.388,114.139,353.472,107.5,367.725z" fill="#ffc107" data-original="#000000" style=""/>
	</g>
</g>
<g xmlns="http://www.w3.org/2000/svg">
	<g>
		<path d="M132.524,253.901c-22.218,13.737-29.176,43.654-5.222,58.995C136.723,305.117,152.035,274.054,132.524,253.901z" fill="#ffc107" data-original="#000000" style=""/>
	</g>
</g>
<g xmlns="http://www.w3.org/2000/svg">
	<g>
		<path d="M53.039,315.674c18.267,29.131,53.851,27.744,67.509,5.365C103.473,303.138,72.473,297.221,53.039,315.674z" fill="#ffc107" data-original="#000000" style=""/>
	</g>
</g>
<g xmlns="http://www.w3.org/2000/svg">
	<g>
		<path d="M110.142,214.117c-25.919,6.688-39.335,32.854-22.192,54.834C109.64,259.305,119.806,229.638,110.142,214.117z" fill="#ffc107" data-original="#000000" style=""/>
	</g>
</g>
<g xmlns="http://www.w3.org/2000/svg">
	<g>
		<path d="M16.061,249.931c12.662,38.04,46.329,39.874,63.059,24.848C73.39,260.138,43.223,235.138,16.061,249.931z" fill="#ffc107" data-original="#000000" style=""/>
	</g>
</g>
<g xmlns="http://www.w3.org/2000/svg">
	<g>
		<path d="M100.446,169.544c-22.306-1.24-48.556,16.427-37.372,45.939C94.056,209.555,103.806,181.221,100.446,169.544z" fill="#ffc107" data-original="#000000" style=""/>
	</g>
</g>
<g xmlns="http://www.w3.org/2000/svg">
	<g>
		<path d="M0,176.203c-0.018,42.018,35.973,51.185,52.923,42.261C49.223,192.483,24.806,171.555,0,176.203z" fill="#ffc107" data-original="#000000" style=""/>
	</g>
</g>
<g xmlns="http://www.w3.org/2000/svg">
	<g>
		<path d="M55.044,157.044c15.117,2.698,46.242-7.365,49.022-33.126C77.348,115.18,53.098,129.157,55.044,157.044z" fill="#ffc107" data-original="#000000" style=""/>
	</g>
</g>
<g xmlns="http://www.w3.org/2000/svg">
	<g>
		<path d="M6.015,101.123c-8.375,24.515,4.041,59.348,38.45,55.813C47.286,134.68,34.098,104.055,6.015,101.123z" fill="#ffc107" data-original="#000000" style=""/>
	</g>
</g>
<g xmlns="http://www.w3.org/2000/svg">
	<g>
		<path d="M64.28,98.789c22.568,9.642,49.193,0.517,56.604-17.247C90.098,59.68,66.348,82.18,64.28,98.789z" fill="#ffc107" data-original="#000000" style=""/>
	</g>
</g>
<g xmlns="http://www.w3.org/2000/svg">
	<g>
		<path d="M33.856,30.946c-14.883,22.11-14.258,56.645,20.338,64.65C62.224,81.305,62.849,43.305,33.856,30.946z" fill="#ffc107" data-original="#000000" style=""/>
	</g>
</g>
<g xmlns="http://www.w3.org/2000/svg">
</g>
<g xmlns="http://www.w3.org/2000/svg">
</g>
<g xmlns="http://www.w3.org/2000/svg">
</g>
<g xmlns="http://www.w3.org/2000/svg">
</g>
<g xmlns="http://www.w3.org/2000/svg">
</g>
<g xmlns="http://www.w3.org/2000/svg">
</g>
<g xmlns="http://www.w3.org/2000/svg">
</g>
<g xmlns="http://www.w3.org/2000/svg">
</g>
<g xmlns="http://www.w3.org/2000/svg">
</g>
<g xmlns="http://www.w3.org/2000/svg">
</g>
<g xmlns="http://www.w3.org/2000/svg">
</g>
<g xmlns="http://www.w3.org/2000/svg">
</g>
<g xmlns="http://www.w3.org/2000/svg">
</g>
<g xmlns="http://www.w3.org/2000/svg">
</g>
<g xmlns="http://www.w3.org/2000/svg">
</g>
</g></svg>
